src/lib/packages/icons/src/assets/filled/message-settings.svg

<svg width="24" height="24" viewBox="0 0 24 24" fill="none" xmlns="http://www.w3.org/2000/svg">
<path d="M13.02 10.5C13.02 11.052 12.573 11.5 12.02 11.5C11.468 11.5 11.0149 11.052 11.0149 10.5C11.0149 9.948 11.458 9.5 12.01 9.5H12.02C12.572 9.5 13.02 9.948 13.02 10.5ZM21 6V15C21 17 20 18 18 18H6L3 21V6C3 4 4 3 6 3H18C20 3 21 4 21 6ZM15.1809 10.502C15.1809 10.025 15.4419 9.58299 15.8679 9.34399L16 9.26904L15.083 7.73096L14.9519 7.80505C14.5249 8.04405 13.999 8.04398 13.573 7.80298C13.149 7.56398 12.8879 7.12505 12.8879 6.64905C12.8879 6.56605 12.8189 6.49902 12.7339 6.49902H11.209C11.124 6.49902 11.0549 6.56605 11.0549 6.64905C11.0549 7.12405 10.7941 7.56398 10.3711 7.80298C9.94509 8.04298 9.41894 8.04405 8.99194 7.80505C8.91994 7.76405 8.82691 7.78801 8.78491 7.85901L8.02002 9.14294C7.97802 9.21294 8.00295 9.30299 8.07495 9.34399L8.0769 9.34497C8.5009 9.58397 8.76194 10.0219 8.76294 10.4969C8.76394 10.9749 8.5029 11.417 8.0769 11.657L8.07495 11.658C8.00195 11.699 7.97802 11.789 8.02002 11.86L8.78394 13.142C8.82594 13.213 8.91894 13.237 8.99194 13.196C9.41894 12.957 9.94412 12.958 10.3701 13.198C10.7941 13.437 11.054 13.8771 11.054 14.3521C11.054 14.4351 11.123 14.501 11.208 14.501H12.7351C12.8201 14.501 12.8889 14.4341 12.8889 14.3521C12.8889 13.8771 13.15 13.437 13.574 13.198C14 12.958 14.5259 12.957 14.9529 13.197C15.0259 13.238 15.1179 13.2139 15.1599 13.1429L15.925 11.859C15.967 11.789 15.9421 11.699 15.8701 11.658L15.8689 11.657C15.4429 11.417 15.1819 10.978 15.1809 10.502Z" fill="currentColor"/>
</svg>

<svg xmlns="http://www.w3.org/2000/svg" width="24" height="24" fill="none"><path fill="currentColor" d="M13.02 10.5a1 1 0 0 1-1 1 1.005 1.005 0 0 1-1.005-1c0-.552.443-1 .995-1h.01a1 1 0 0 1 1 1ZM21 6v9c0 2-1 3-3 3H6l-3 3V6c0-2 1-3 3-3h12c2 0 3 1 3 3Zm-5.82 4.502c0-.477.262-.919.688-1.158L16 9.269l-.917-1.538-.131.074a1.41 1.41 0 0 1-1.379-.002 1.327 1.327 0 0 1-.685-1.154.152.152 0 0 0-.154-.15h-1.525a.152.152 0 0 0-.154.15c0 .475-.26.915-.684 1.154-.426.24-.952.241-1.38.002a.153.153 0 0 0-.206.054L8.02 9.143a.145.145 0 0 0 .055.201l.002.001c.424.239.685.677.686 1.152 0 .478-.26.92-.686 1.16l-.002.001a.145.145 0 0 0-.055.202l.764 1.282a.154.154 0 0 0 .208.054 1.412 1.412 0 0 1 1.378.002c.424.239.684.68.684 1.154 0 .083.069.149.154.149h1.527a.152.152 0 0 0 .154-.149c0-.475.261-.915.685-1.154a1.41 1.41 0 0 1 1.379-.001.153.153 0 0 0 .207-.054l.765-1.284a.145.145 0 0 0-.055-.201l-.001-.001a1.33 1.33 0 0 1-.688-1.155Z"/></svg>
